src/browser/themes/shared/zen-icons/lin/cookies-fill.svg

#filter dumbComments emptyLines substitution
# This Source Code Form is subject to the terms of the Mozilla Public
# License, v. 2.0. If a copy of the MPL was not distributed with this
# file, You can obtain one at http://mozilla.org/MPL/2.0/.
<svg xmlns="http://www.w3.org/2000/svg" height="18" width="18" viewBox="0 0 18 18"><g fill="context-fill" fill-opacity="context-fill-opacity" class="nc-icon-wrapper"><circle cx="12.25" cy="1.75" r=".75" data-color="color-2"></circle><circle cx="14.75" cy="4.25" r=".75" data-color="color-2"></circle><path d="M16.87,7.599c-.039-.222-.176-.415-.373-.524-.197-.109-.433-.125-.642-.042-.363,.144-.735,.217-1.105,.217-1.498,0-2.77-1.128-2.958-2.624-.051-.403-.409-.688-.818-.652l-.224,.026c-1.209,0-2.193-.951-2.239-2.165-.008-.216-.109-.418-.277-.554-.168-.137-.386-.193-.6-.157C3.79,1.788,1,5.1,1,9c0,4.411,3.589,8,8,8s8-3.589,8-8c0-.451-.042-.909-.13-1.401Zm-9.87-1.599c.552,0,1,.448,1,1s-.448,1-1,1-1-.448-1-1,.448-1,1-1Zm.25,6.5c-.69,0-1.25-.56-1.25-1.25s.56-1.25,1.25-1.25,1.25,.56,1.25,1.25-.56,1.25-1.25,1.25Zm4,0c-.414,0-.75-.336-.75-.75s.336-.75,.75-.75,.75,.336,.75,.75-.336,.75-.75,.75Z"></path></g></svg>

#filter dumbComments emptyLines substitution
# This Source Code Form is subject to the terms of the Mozilla Public
# License, v. 2.0. If a copy of the MPL was not distributed with this
# file, You can obtain one at http://mozilla.org/MPL/2.0/.
<svg height="18" width="18" viewBox="0 0 18 18" id="svg2" fill="context-fill" fill-opacity="context-fill-opacity" xmlns="http://www.w3.org/2000/svg" xmlns:svg="http://www.w3.org/2000/svg"><g fill="context-fill" fill-opacity="context-fill-opacity" class="nc-icon-wrapper" id="g2"><path id="path2" d="M 16.87,7.599 C 16.831,7.377 16.694,7.184 16.497,7.075 16.3,6.966 16.064,6.95 15.855,7.033 15.492,7.177 15.12,7.25 14.75,7.25 13.252,7.25 11.98,6.122 11.792,4.626 11.741,4.223 11.383,3.938 10.974,3.974 L 10.75,4 C 9.541,4 8.557,3.049 8.511,1.835 8.503,1.619 8.402,1.417 8.234,1.281 8.066,1.144 7.848,1.088 7.634,1.124 3.79,1.788 1,5.1 1,9 c 0,4.411 3.589,8 8,8 4.411,0 8,-3.589 8,-8 C 17,8.549 16.958,8.091 16.87,7.599 Z M 7,6 C 7.552,6 8,6.448 8,7 8,7.552 7.552,8 7,8 6.448,8 6,7.552 6,7 6,6.448 6.448,6 7,6 Z m 0.25,6.5 C 6.56,12.5 6,11.94 6,11.25 6,10.56 6.56,10 7.25,10 c 0.69,0 1.25,0.56 1.25,1.25 0,0.69 -0.56,1.25 -1.25,1.25 z m 4,0 c -0.414,0 -0.75,-0.336 -0.75,-0.75 0,-0.414 0.336,-0.75 0.75,-0.75 0.414,0 0.75,0.336 0.75,0.75 0,0.414 -0.336,0.75 -0.75,0.75 z M 15.5,4.25 A 0.75,0.75 0 0 1 14.75,5 0.75,0.75 0 0 1 14,4.25 0.75,0.75 0 0 1 14.75,3.5 0.75,0.75 0 0 1 15.5,4.25 Z M 13,1.75 A 0.75,0.75 0 0 1 12.25,2.5 0.75,0.75 0 0 1 11.5,1.75 0.75,0.75 0 0 1 12.25,1 0.75,0.75 0 0 1 13,1.75 Z"/></g></svg>
